X: 1
T:Passade 2 - bourree
C:Gilles Chabenat
N:abc transcription Simon Wascher
N:if you find an error in this transcription please inform simon.wascher@chello.at
M:3/8
L:1/16
K:Dmixo
A|:c2B2GA|d2c2B2|A3GFG|A2D2E2|
c2B2GA|d2c2B2|1A3GFG|A4D2:|2A3GFA|D2A2B2||
|:GFE2c2|FED2d2|BABcdB|A2d2A2|
GFE2c2|FED2d2|1BABcdB|A4d2:|2cBAGFE|D4||
